public/icons/aim-khki.svg

<svg xmlns="http://www.w3.org/2000/svg" fill="none" viewBox="2 2 20 20"><path d="M21 11H19.93C19.7068 9.23998 18.9049 7.60408 17.6504 6.34959C16.3959 5.0951 14.76 4.29319 13 4.07V3C13 2.73478 12.8946 2.48043 12.7071 2.29289C12.5196 2.10536 12.2652 2 12 2C11.7348 2 11.4804 2.10536 11.2929 2.29289C11.1054 2.48043 11 2.73478 11 3V4.07C9.23998 4.29319 7.60408 5.0951 6.34959 6.34959C5.0951 7.60408 4.29319 9.23998 4.07 11H3C2.73478 11 2.48043 11.1054 2.29289 11.2929C2.10536 11.4804 2 11.7348 2 12C2 12.2652 2.10536 12.5196 2.29289 12.7071C2.48043 12.8946 2.73478 13 3 13H4.07C4.29319 14.76 5.0951 16.3959 6.34959 17.6504C7.60408 18.9049 9.23998 19.7068 11 19.93V21C11 21.2652 11.1054 21.5196 11.2929 21.7071C11.4804 21.8946 11.7348 22 12 22C12.2652 22 12.5196 21.8946 12.7071 21.7071C12.8946 21.5196 13 21.2652 13 21V19.93C14.76 19.7068 16.3959 18.9049 17.6504 17.6504C18.9049 16.3959 19.7068 14.76 19.93 13H21C21.2652 13 21.5196 12.8946 21.7071 12.7071C21.8946 12.5196 22 12.2652 22 12C22 11.7348 21.8946 11.4804 21.7071 11.2929C21.5196 11.1054 21.2652 11 21 11ZM17 13H17.91C17.7016 14.2264 17.1171 15.3578 16.2374 16.2374C15.3578 17.1171 14.2264 17.7016 13 17.91V17C13 16.7348 12.8946 16.4804 12.7071 16.2929C12.5196 16.1054 12.2652 16 12 16C11.7348 16 11.4804 16.1054 11.2929 16.2929C11.1054 16.4804 11 16.7348 11 17V17.91C9.77356 17.7016 8.64222 17.1171 7.76256 16.2374C6.8829 15.3578 6.29842 14.2264 6.09 13H7C7.26522 13 7.51957 12.8946 7.70711 12.7071C7.89464 12.5196 8 12.2652 8 12C8 11.7348 7.89464 11.4804 7.70711 11.2929C7.51957 11.1054 7.26522 11 7 11H6.09C6.29842 9.77356 6.8829 8.64222 7.76256 7.76256C8.64222 6.8829 9.77356 6.29842 11 6.09V7C11 7.26522 11.1054 7.51957 11.2929 7.70711C11.4804 7.89464 11.7348 8 12 8C12.2652 8 12.5196 7.89464 12.7071 7.70711C12.8946 7.51957 13 7.26522 13 7V6.09C14.2264 6.29842 15.3578 6.8829 16.2374 7.76256C17.1171 8.64222 17.7016 9.77356 17.91 11H17C16.7348 11 16.4804 11.1054 16.2929 11.2929C16.1054 11.4804 16 11.7348 16 12C16 12.2652 16.1054 12.5196 16.2929 12.7071C16.4804 12.8946 16.7348 13 17 13ZM12 11C11.8022 11 11.6089 11.0586 11.4444 11.1685C11.28 11.2784 11.1518 11.4346 11.0761 11.6173C11.0004 11.8 10.9806 12.0011 11.0192 12.1951C11.0578 12.3891 11.153 12.5673 11.2929 12.7071C11.4327 12.847 11.6109 12.9422 11.8049 12.9808C11.9989 13.0194 12.2 12.9996 12.3827 12.9239C12.5654 12.8482 12.7216 12.72 12.8315 12.5556C12.9414 12.3911 13 12.1978 13 12C13 11.7348 12.8946 11.4804 12.7071 11.2929C12.5196 11.1054 12.2652 11 12 11Z" fill="#ae9f91"></path></svg>

<svg xmlns="http://www.w3.org/2000/svg" fill="none" viewBox="2 2 20 20"><path fill="#ae9f91" d="M21 11h-1.07A8 8 0 0 0 13 4.07V3a1 1 0 0 0-2 0v1.07A8 8 0 0 0 4.07 11H3a1 1 0 0 0 0 2h1.07A8 8 0 0 0 11 19.93V21a1 1 0 0 0 2 0v-1.07A8 8 0 0 0 19.93 13H21a1 1 0 0 0 0-2m-4 2h.91A6 6 0 0 1 13 17.91V17a1 1 0 0 0-2 0v.91A6 6 0 0 1 6.09 13H7a1 1 0 0 0 0-2h-.91A6 6 0 0 1 11 6.09V7a1 1 0 0 0 2 0v-.91A6 6 0 0 1 17.91 11H17a1 1 0 0 0 0 2m-5-2a1 1 0 1 0 0 2 1 1 0 0 0 0-2"/></svg>
